images/icons/twitter.svg

<?xml version="1.0" encoding="UTF-8" standalone="no"?>
<svg width="40px" height="40px" viewBox="0 0 40 40" version="1.1" xmlns="http://www.w3.org/2000/svg" xmlns:xlink="http://www.w3.org/1999/xlink" xmlns:sketch="http://www.bohemiancoding.com/sketch/ns">
    <defs></defs>
    <g>
        <path d="M40,7.32098765 C38.6138614,7.9691358 37.029703,8.40123457 35.2475248,8.61728395 C36.8316832,7.53703704 38.2178218,5.80864198 38.8118812,3.64814815 C37.2277228,4.72839506 35.4455446,5.37654321 33.6633663,5.80864198 C32.2772277,4.08024691 30.0990099,3 27.7227723,3 C22.5742574,3 18.6138614,8.40123457 19.8019802,13.8024691 C13.0693069,13.3703704 7.12871287,9.91358025 2.97029703,4.51234568 C0.792079208,8.40123457 1.78217822,13.8024691 5.54455446,16.3950617 C4.15841584,16.3950617 2.97029703,15.962963 1.78217822,15.3148148 C1.78217822,19.4197531 4.35643564,23.308642 8.31683168,24.1728395 C7.12871287,24.6049383 5.94059406,24.6049383 4.55445545,24.3888889 C5.54455446,27.845679 8.51485149,30.4382716 12.0792079,30.4382716 C8.71287129,33.462963 4.35643564,34.7592593 5.68434189e-14,34.1111111 C3.56435644,36.7037037 7.92079208,38 12.4752475,38 C27.5247525,38 36.039604,24.1728395 35.6435644,11.6419753 C37.6237624,10.5617284 38.8118812,9.04938272 40,7.32098765 L40,7.32098765 Z" id="twitter" fill="currentColor"></path>
    </g>
</svg>

<svg width="40" height="40" viewBox="0 0 40 40" xmlns="http://www.w3.org/2000/svg"><path d="M40 7.32c-1.386.65-2.97 1.08-4.752 1.297 1.584-1.08 2.97-2.808 3.564-4.97-1.584 1.08-3.366 1.73-5.15 2.162C32.278 4.08 30.1 3 27.723 3c-5.148 0-9.108 5.4-7.92 10.802C13.07 13.37 7.13 9.914 2.97 4.512c-2.178 3.89-1.188 9.29 2.575 11.883-1.387 0-2.575-.432-3.763-1.08 0 4.105 2.574 7.994 6.535 8.858-1.188.432-2.376.432-3.763.216.99 3.456 3.96 6.048 7.525 6.048C8.712 33.463 4.355 34.758 0 34.11 3.564 36.705 7.92 38 12.475 38c15.05 0 23.565-13.827 23.17-26.358 1.98-1.08 3.167-2.593 4.355-4.32z" fill="currentColor"/></svg>
